COLOR/action 16/16/multisystem-blue.svg

<svg height="16" width="16" xmlns="http://www.w3.org/2000/svg"><g stroke-width="1.066667"><path d="m8.0000001.00000012c-4.4141259 0-8.0000001 3.58587438-8.0000001 7.99999988 0 4.414126 3.5858742 8 8.0000001 8s8.0000059-3.585874 7.9999999-8c0-4.4141255-3.585874-7.99999988-7.9999999-7.99999988z" fill="#1a7fd4"/><path d="m8 0c-4.4141259 0-8 3.5858745-8 8 0 .0844666.009112.1661592.01171875.25.1336187-4.297577 3.65862195-7.75 7.98828125-7.75 4.329659 0 7.854663 3.452423 7.988281 7.75.002607-.0838408.011719-.1655334.011719-.25 0-4.4141255-3.585874-8-8-8z" fill="#fff" opacity=".3"/><path d="m8 16c4.414126 0 8-3.585874 8-8 0-.08447-.0091-.166159-.01172-.25-.133617 4.297577-3.658621 7.75-7.98828 7.75s-7.854663-3.452423-7.988281-7.75c-.00261.08384-.011719.165533-.011719.25 0 4.414126 3.585874 8 8 8z" opacity=".2"/></g></svg>

<?xml version="1.0" encoding="UTF-8" standalone="no"?>
<svg
   xmlns:dc="http://purl.org/dc/elements/1.1/"
   xmlns:cc="http://creativecommons.org/ns#"
   xmlns:rdf="http://www.w3.org/1999/02/22-rdf-syntax-ns#"
   xmlns:svg="http://www.w3.org/2000/svg"
   xmlns="http://www.w3.org/2000/svg"
   xmlns:sodipodi="http://sodipodi.sourceforge.net/DTD/sodipodi-0.dtd"
   xmlns:inkscape="http://www.inkscape.org/namespaces/inkscape"
   height="16"
   width="16"
   version="1.1"
   id="svg4"
   sodipodi:docname="multisystem-blue.svg"
   inkscape:version="0.92.4 (5da689c313, 2019-01-14)">
  <metadata
     id="metadata10">
    <rdf:RDF>
      <cc:Work
         rdf:about="">
        <dc:format>image/svg+xml</dc:format>
        <dc:type
           rdf:resource="http://purl.org/dc/dcmitype/StillImage" />
      </cc:Work>
    </rdf:RDF>
  </metadata>
  <defs
     id="defs8" />
  <sodipodi:namedview
     pagecolor="#ffffff"
     bordercolor="#666666"
     borderopacity="1"
     objecttolerance="10"
     gridtolerance="10"
     guidetolerance="10"
     inkscape:pageopacity="0"
     inkscape:pageshadow="2"
     inkscape:window-width="1358"
     inkscape:window-height="897"
     id="namedview6"
     showgrid="false"
     inkscape:zoom="18.473581"
     inkscape:cx="-5.6525425"
     inkscape:cy="8"
     inkscape:window-x="0"
     inkscape:window-y="27"
     inkscape:window-maximized="0"
     inkscape:current-layer="svg4" />
  <path
     d="M 8.0000001,1.2e-7 C 3.5858742,1.2e-7 0,3.5858745 0,8 0,12.414126 3.5858742,16 8.0000001,16 12.414126,16 16.000006,12.414126 16,8 16,3.5858745 12.414126,1.2e-7 8.0000001,1.2e-7 Z"
     id="path2"
     inkscape:connector-curvature="0"
     style="fill:#1a7fd4;stroke-width:1.06666672;fill-opacity:1" />
  <path
     style="fill:#ffffff;stroke-width:1.06666672;fill-opacity:1;opacity:0.3"
     d="M 8 0 C 3.5858741 0 -1.1842379e-15 3.5858745 0 8 C 0 8.0844666 0.0091120039 8.1661592 0.01171875 8.25 C 0.14533745 3.952423 3.6703407 0.5 8 0.5 C 12.329659 0.5 15.854663 3.952423 15.988281 8.25 C 15.990888 8.1661592 16 8.0844666 16 8 C 16 3.5858745 12.414126 -5.9211895e-16 8 0 z "
     id="path817" />
  <path
     id="path822"
     d="m 8,16 c 4.414126,0 8,-3.585874 8,-8 C 16,7.91553 15.9909,7.833841 15.98828,7.75 15.854663,12.047577 12.329659,15.5 8,15.5 3.670341,15.5 0.145337,12.047577 0.011719,7.75 0.009109,7.83384 0,7.915533 0,8 c 0,4.414126 3.585874,8 8,8 z"
     style="opacity:0.2;fill:#000000;fill-opacity:1;stroke-width:1.06666672"
     inkscape:connector-curvature="0" />
</svg>
